X:129
T: Horch auf, Kamerad, die Trommel ruft,
N: D0196
O: Europa, Mitteleuropa, Deutschland, Brandenburg, Berlin
R: nationalsozialistisches Lied, Soldaten - Lied
M: 4/4
L: 1/8
K: G
D2 | G2GGG2B2 | BAAFG2GG | c2ccc2c2 | B2G2z2
D2 | G2GGG2B2 | BAAFG2GG | c2ccc2c2 | B2G2z2
GG | e2e2e2ee | e2dcd3d | c2ccc2de | d2B2z2
GG | e2e2e2ee | e2dcd3d | c2ccc2de | d2B2z2
D2 | G2GGG2B2 | BAAFG2GG | c2cce2c2 | B2G2z2
D2 | G2GGG2B2 | BAAFG2GG | c2ccc2c2 | B2G2z2

@@@ Tune index: 2651
